build-source/logos/canalplus3d-vephauucha.default.svg

<?xml version="1.0" encoding="UTF-8" standalone="no"?>
<svg
   xmlns:dc="http://purl.org/dc/elements/1.1/"
   xmlns:cc="http://creativecommons.org/ns#"
   xmlns:rdf="http://www.w3.org/1999/02/22-rdf-syntax-ns#"
   xmlns:svg="http://www.w3.org/2000/svg"
   xmlns="http://www.w3.org/2000/svg"
   xmlns:sodipodi="http://sodipodi.sourceforge.net/DTD/sodipodi-0.dtd"
   xmlns:inkscape="http://www.inkscape.org/namespaces/inkscape"
   width="625"
   height="193.75"
   viewBox="0 0 1.25 0.3875"
   id="svg2"
   version="1.1"
   inkscape:version="0.48.2 r9819"
   sodipodi:docname="AJAX1.svg">
  <metadata
     id="metadata10">
    <rdf:RDF>
      <cc:Work
         rdf:about="">
        <dc:format>image/svg+xml</dc:format>
        <dc:type
           rdf:resource="http://purl.org/dc/dcmitype/StillImage" />
      </cc:Work>
    </rdf:RDF>
  </metadata>
  <defs
     id="defs8" />
  <sodipodi:namedview
     pagecolor="#ffffff"
     bordercolor="#666666"
     borderopacity="1"
     objecttolerance="10"
     gridtolerance="10"
     guidetolerance="10"
     inkscape:pageopacity="0"
     inkscape:pageshadow="2"
     inkscape:window-width="1280"
     inkscape:window-height="1004"
     id="namedview6"
     showgrid="false"
     fit-margin-top="0"
     fit-margin-left="0"
     fit-margin-right="0"
     fit-margin-bottom="0"
     inkscape:zoom="1.6147823"
     inkscape:cx="259.77289"
     inkscape:cy="16.671136"
     inkscape:window-x="-8"
     inkscape:window-y="-8"
     inkscape:window-maximized="1"
     inkscape:current-layer="svg2" />
  <path
     style="fill:#000000"
     d="m 0,0.1239 1.0559,0 0,0.2636 -1.0559,0 z"
     id="rect4"
     inkscape:connector-curvature="0"
     sodipodi:nodetypes="ccccc" />
  <path
     style="fill:#ffffff"
     inkscape:connector-curvature="0"
     d="M 0.097275,0.169125 C 0.1257,0.1574 0.159175,0.15935 0.186575,0.173025 0.18985,0.174975 0.1955,0.1775 0.193075,0.182375 0.190425,0.193975 0.18895,0.205825 0.1859,0.217325 0.1655,0.201725 0.135375,0.196525 0.1128,0.210425 0.093625,0.222675 0.0873,0.24885 0.095,0.269575 0.10055,0.28405 0.11505,0.2939 0.130225,0.295575 0.1454,0.2987 0.160175,0.2926 0.1742,0.287625 0.171025,0.301425 0.17,0.315675 0.1663,0.329325 0.130825,0.344325 0.08385,0.3365 0.060275,0.30435 0.04105,0.276475 0.0406,0.238075 0.055475,0.208175 0.06375,0.190375 0.079625,0.1771 0.097275,0.169125 z"
     id="path9" />
  <path
     style="fill:#ffffff"
     inkscape:connector-curvature="0"
     d="m 0.90327501,0.220125 c 3.75e-4,-0.018675 -4e-4,-0.037375 4e-4,-0.056025 0.015725,6.25e-4 0.031475,5e-5 0.047225,3.25e-4 6.25e-4,0.01855 -7.75e-4,0.0372 6.75e-4,0.055725 0.019525,-0.00145 0.0392,-6.75e-4 0.05875,-4.75e-4 0.00248,0.015275 1.25e-4,0.031675 0.00113,0.04735 -0.02015,9.25e-4 -0.040375,-7e-4 -0.060475,9e-4 1.25e-4,0.021125 -2e-4,0.042275 1.75e-4,0.0634 -0.01595,7.25e-4 -0.031925,1e-4 -0.047875,3.5e-4 3.25e-4,-0.020975 -3.5e-4,-0.04195 4e-4,-0.062925 -0.0204,-0.0033 -0.0414,-6e-4 -0.06205,-0.0015 7.5e-5,-0.0157 -7.5e-5,-0.0314 1.5e-4,-0.0471 0.0205,7.5e-5 0.041,2.5e-4 0.0615,-2.5e-5 z"
     id="path11" />
  <path
     style="fill:#ffffff"
     inkscape:connector-curvature="0"
     d="m 0.26052501,0.1682 c 0.0183,-1.75e-4 0.036575,2.5e-5 0.054875,-1.25e-4 0.011625,0.054475 0.02345,0.108925 0.034575,0.1635 -0.013875,-2e-4 -0.027775,0 -0.04165,1.5e-4 -0.0028,-0.0095 -0.0045,-0.0193 -0.007425,-0.02875 -0.01925,6.25e-4 -0.038575,-4.75e-4 -0.0578,5.5e-4 -0.006325,0.0081 -0.0094,0.01865 -0.01395,0.027925 -0.01645,5e-5 -0.0329,-5e-5 -0.04935,7.5e-5 0.026325,-0.054725 0.05425,-0.108675 0.080725,-0.163325 m 0.0172,0.054125 c -0.0065,0.01485 -0.012575,0.029875 -0.0198,0.0444 0.011525,5e-4 0.023075,2.25e-4 0.0346,4e-4 C 0.29035001,0.25 0.28540001,0.2334 0.28207501,0.2165 c -0.002,0.00155 -0.003425,0.0035 -0.00435,0.005825 z"
     id="path13" />
  <path
     style="fill:#ffffff"
     inkscape:connector-curvature="0"
     d="m 0.39150001,0.168425 c 0.01595,-2e-4 0.031925,7.5e-5 0.047875,-1.75e-4 0.016075,0.02805 0.032025,0.056175 0.048025,0.084275 0.001775,0.002775 0.002625,0.006775 0.00635,0.00745 0.004025,-0.030475 0.009525,-0.060775 0.0128,-0.0913 0.0151,-7.75e-4 0.030225,2e-4 0.045325,-1.25e-4 -0.00775,0.054375 -0.015575,0.10875 -0.02325,0.163125 -0.014625,2.25e-4 -0.029275,4.5e-4 -0.043875,0 -0.0159,-0.02805 -0.0317,-0.0562 -0.04755,-0.084275 -0.003375,-0.005775 -0.006125,-0.012025 -0.01045,-0.017175 -0.004475,0.03385 -0.0094,0.067625 -0.014425,0.1014 -0.014525,-4e-4 -0.02905,5e-5 -0.043575,-3e-4 0.007725,-0.054275 0.01545,-0.10855 0.02275,-0.1629 z"
     id="path15" />
  <path
     style="fill:#ffffff"
     inkscape:connector-curvature="0"
     d="m 0.63055001,0.168225 c 0.0179,-1.75e-4 0.035825,-1.5e-4 0.05375,0 0.012125,0.0544 0.02215,0.109275 0.0347,0.16355 -0.014575,5.75e-4 -0.02915,3.75e-4 -0.0437,1.75e-4 -0.002975,-0.009675 -0.002175,-0.021375 -0.007775,-0.029675 -0.018375,-4.5e-4 -0.0368,-5.5e-4 -0.055175,2.5e-5 -0.00645,0.008825 -0.00945,0.0197 -0.0147,0.029275 -0.016375,6.75e-4 -0.032775,1.5e-4 -0.049175,3e-4 0.027575,-0.05445 0.054625,-0.10915 0.082075,-0.16365 M 0.62787501,0.2679 c 0.011325,-2.75e-4 0.022675,-2.5e-4 0.034,-5e-5 -0.0025,-0.017875 -0.006625,-0.035575 -0.01105,-0.0531 -0.008175,0.0174 -0.016875,0.034875 -0.02295,0.05315 z"
     id="path17" />
  <path
     style="fill:#ffffff"
     inkscape:connector-curvature="0"
     d="m 0.76072501,0.168125 c 0.0153,1.25e-4 0.0306,-1.5e-4 0.0459,1e-4 -0.0065,0.042225 -0.01185,0.084675 -0.017625,0.127025 0.01655,-2e-4 0.0331,1.5e-4 0.04965,-1.75e-4 -9e-4,0.0123 -0.003325,0.0244 -0.004625,0.03665 -0.02885,3.5e-4 -0.0577,0 -0.08655,2e-4 -0.0037,-5e-5 -0.007575,3.25e-4 -0.010925,-0.001575 0.0029,-0.0098 0.003375,-0.0201 0.004975,-0.03015 0.006675,-0.044 0.012525,-0.0881 0.0192,-0.132075 z"
     id="path19" />
  <path
     d="M 1.04115,0 1.059,0 c 0.015825,0.0027 0.031875,0.008675 0.0426,0.021175 0.00593,0.0065 0.00898,0.0149 0.012025,0.023 0.03985,-7.5e-5 0.0797,1e-4 0.11955,-7.5e-5 C 1.2394,0.0846 1.243975,0.125375 1.25,0.165925 l 0,0.003175 C 1.185275,0.178875 1.12055,0.1888 1.05595,0.19945 1.036875,0.201775 1.018075,0.2064 0.99885,0.20715 0.99605,0.18945 0.9753,0.0702 0.971425,0.0442 0.9786,0.044225 0.985775,0.044175 0.99295,0.043975 0.995575,0.0196 1.017625,0.00225 1.04115,0"
     id="path22"
     inkscape:connector-curvature="0"
     style="fill:#0166b4"
     sodipodi:nodetypes="cccccccccccc" />
  <path
     style="fill:#ffffff"
     inkscape:connector-curvature="0"
     d="M 1.02395,0.018975 C 1.04795,0.007075 1.0817,0.0123 1.0971,0.0355 1.1022,0.04465 1.105225,0.056025 1.10175,0.0663 1.09985,0.072225 1.095575,0.0769 1.091975,0.081825 1.11875,0.08965 1.12665,0.1282 1.10735,0.147325 1.0834,0.17085 1.04125,0.170775 1.0164,0.14865 1.008075,0.140725 1.004825,0.129475 1.00125,0.11895 1.013675,0.11495 1.0272,0.116075 1.040125,0.11565 1.04135,0.132 1.062325,0.139675 1.07475,0.13005 1.082125,0.122375 1.082125,0.108325 1.07405,0.1012 1.06795,0.096625 1.060025,0.096475 1.05275,0.096675 1.051175,0.0889 1.050575,0.081025 1.050125,0.07315 1.056575,0.072175 1.06435,0.071475 1.06765,0.06485 1.0711,0.056325 1.06595,0.04225 1.05515,0.043125 1.04995,0.04305 1.04325,0.0424 1.040125,0.047525 1.03815,0.051275 1.038,0.055625 1.037175,0.059725 1.02585,0.06 1.01455,0.060825 1.003225,0.060775 c -4e-4,-0.01615 0.00572,-0.03385 0.020725,-0.0418 z"
     id="path5" />
  <path
     style="fill:#ffffff"
     inkscape:connector-curvature="0"
     d="M 1.12825,0.0631 C 1.15085,0.063825 1.175375,0.05835 1.1963,0.069325 1.210775,0.0778 1.22485,0.0919 1.224325,0.109875 1.225475,0.1275 1.212225,0.14275 1.1973,0.150325 1.179,0.15835 1.158225,0.15555 1.138875,0.158975 1.135525,0.127 1.132225,0.095 1.12825,0.0631 m 0.029775,0.02 C 1.15935,0.1008 1.161275,0.11845 1.1637,0.136025 1.17455,0.135725 1.18735,0.133175 1.193325,0.12305 1.1995,0.111325 1.19595,0.094775 1.18405,0.08805 1.17645,0.082675 1.16685,0.082975 1.158025,0.0831 z"
     id="path7" />
</svg>

<svg xmlns="http://www.w3.org/2000/svg" width="625" height="193.75" viewBox="0 0 1.25 0.3875"><path d="m0 .124h1.056v.264h-1.056z"/><g fill="#fff"><path d="m.097.169c.028-.012.062-.001.089.004.003.002.009.004.007.009-.003.012-.004.023-.007.035-.02-.016-.051-.021-.073-.007-.019.012-.025.038-.018.059.006.014.02.024.035.026.015.003.03-.003.044-.008-.003.014-.004.028-.008.042-.035.015-.082.007-.106-.025-.019-.028-.02-.066-.005-.096.008-.018.024-.031.042-.039"/><path d="m.903.22c0-.019 0-.037 0-.056.016 0 .031 0 .047 0 0 .019 0 .037 0 .056.02 0 .039 0 .059 0 .002.015 0 .032 0 .047-.02 0-.04 0-.06 0 0 .021 0 .042 0 .063-.016 0-.032 0-.048 0 0-.021 0-.042 0-.063-.02-.003-.041 0-.062-.002 0-.016 0-.031 0-.047.02 0 .041 0 .061 0"/><path d="m.261.168c.018 0 .037 0 .055 0 .012.054.023.109.035.164-.014 0-.028 0-.042 0-.003-.0001-.005-.019-.007-.029-.019 0-.039 0-.058 0-.006.008-.009.019-.014.028-.016 0-.033 0-.049 0 .026-.055.054-.109.081-.163m.017.054c-.007.015-.013.03-.02.044.012 0 .023 0 .035 0-.002-.017-.007-.034-.0001-.051-.002.002-.003.004-.004.006z"/><path d="m.392.168c.016 0 .032 0 .048 0 .016.028.032.056.048.084.002.003.003.007.006.007.004-.03.0001-.061.013-.091.015 0 .03 0 .045 0-.008.054-.016.109-.023.163-.015 0-.029 0-.044 0-.016-.028-.032-.056-.048-.084-.003-.006-.006-.012-.0001-.017-.004.034-.009.068-.014.101-.015 0-.029 0-.044 0 .008-.054.015-.109.023-.163"/><path d="m.631.168c.018 0 .036 0 .054 0 .012.054.022.109.035.164-.015 0-.029 0-.044 0-.003-.0001-.002-.021-.008-.03-.018 0-.037 0-.055 0-.006.009-.009.02-.015.029-.016 0-.033 0-.049 0 .028-.054.055-.109.082-.164m-.003.1c.011 0 .023 0 .034 0-.002-.018-.007-.036-.011-.053-.008.017-.017.035-.023.053z"/><path d="m.761.168c.015 0 .031 0 .046 0-.006.042-.012.085-.018.127.017 0 .033 0 .05 0 0 .012-.003.024-.005.037-.029 0-.058 0-.087 0-.004 0-.008 0-.011-.002.003-.0001.003-.02.005-.03.007-.044.013-.088.019-.132"/></g><path d="m1.041 0h.018c.016.003.032.009.043.021.006.006.009.015.012.023.04 0 .08 0 .12 0 .006.04.011.081.017.122v.003c-.065.001-.129.02-.194.03-.019.002-.038.007-.057.008-.003-.018-.024-.137-.027-.163.007 0 .014 0 .022 0 .003-.024.025-.042.048-.044" fill="#0166b4"/><g fill="#fff"><path d="m1.024.019c.024-.012.058-.007.073.017.005.009.008.021.005.031-.002.006-.006.011-.0001.016.027.008.035.046.015.066-.024.024-.066.023-.091 0-.008-.008-.012-.019-.015-.03.012-.004.026-.003.039-.003 0 .016.022.024.035.014.007-.008.007-.022 0-.029-.006-.005-.014-.005-.021-.005-.002-.008-.002-.016-.003-.024.006 0 .014-.002.018-.008.003-.009-.002-.023-.012-.022-.005 0-.012 0-.015.004-.002.004-.002.008-.003.012-.011 0-.023 0-.034 0 0-.016.006-.034.021-.042"/><path d="m1.128.063c.023 0 .047-.005.068.006.014.008.029.023.028.041 0 .018-.012.033-.027.04-.018.008-.039.005-.058.009-.003-.032-.007-.064-.011-.096m.03.02c0 .018.003.035.006.053.011 0 .024-.003.03-.013.006-.012.003-.028-.009-.035-.008-.005-.017-.005-.026-.005z"/></g></svg>
